src/img/instagram.svg

<svg width="23" height="22" viewBox="0 0 23 22" fill="none" xmlns="http://www.w3.org/2000/svg">
<path d="M11.5 0C8.51488 0 8.1395 0.01375 6.96663 0.066C5.79375 0.121 4.99487 0.30525 4.295 0.5775C3.56088 0.853626 2.89593 1.28676 2.34663 1.84663C1.7871 2.39621 1.35402 3.06108 1.0775 3.795C0.80525 4.4935 0.619625 5.29375 0.566 6.4625C0.51375 7.63812 0.5 8.01213 0.5 11.0014C0.5 13.9879 0.51375 14.3619 0.566 15.5347C0.621 16.7063 0.80525 17.5051 1.0775 18.205C1.35938 18.9282 1.73475 19.5415 2.34663 20.1534C2.95713 20.7652 3.57037 21.142 4.29363 21.4225C4.99487 21.6947 5.79238 21.8804 6.96388 21.934C8.13813 21.9862 8.51213 22 11.5 22C14.4879 22 14.8605 21.9862 16.0347 21.934C17.2049 21.879 18.0065 21.6947 18.7064 21.4225C19.44 21.1462 20.1045 20.7131 20.6534 20.1534C21.2652 19.5415 21.6406 18.9282 21.9225 18.205C22.1934 17.5051 22.379 16.7063 22.434 15.5347C22.4862 14.3619 22.5 13.9879 22.5 11C22.5 8.01213 22.4862 7.63813 22.434 6.46388C22.379 5.29375 22.1934 4.4935 21.9225 3.795C21.646 3.06106 21.2129 2.39618 20.6534 1.84663C20.1042 1.28655 19.4392 0.853387 18.705 0.5775C18.0037 0.30525 17.2035 0.119625 16.0334 0.066C14.8591 0.01375 14.4865 0 11.4973 0H11.5014H11.5ZM10.5141 1.98275H11.5014C14.4384 1.98275 14.7863 1.99238 15.9454 2.046C17.0179 2.09413 17.6009 2.27425 17.9886 2.42412C18.5015 2.6235 18.8686 2.86275 19.2536 3.24775C19.6386 3.63275 19.8765 3.9985 20.0759 4.51275C20.2271 4.89913 20.4059 5.48213 20.454 6.55463C20.5076 7.71375 20.5186 8.06163 20.5186 10.9973C20.5186 13.9329 20.5076 14.2821 20.454 15.4412C20.4059 16.5138 20.2257 17.0954 20.0759 17.4831C19.8995 17.9607 19.618 18.3926 19.2522 18.7467C18.8672 19.1318 18.5015 19.3696 17.9873 19.569C17.6023 19.7203 17.0192 19.899 15.9454 19.9485C14.7863 20.0007 14.4384 20.0131 11.5014 20.0131C8.56438 20.0131 8.21513 20.0007 7.056 19.9485C5.9835 19.899 5.40188 19.7203 5.01412 19.569C4.53631 19.3929 4.10405 19.1119 3.74913 18.7467C3.38303 18.392 3.10112 17.9598 2.92412 17.4818C2.77425 17.0954 2.59413 16.5124 2.546 15.4399C2.49375 14.2808 2.48275 13.9329 2.48275 10.9945C2.48275 8.0575 2.49375 7.711 2.546 6.55187C2.5955 5.47937 2.77425 4.89638 2.9255 4.50863C3.12488 3.99575 3.36412 3.62862 3.74913 3.24362C4.13412 2.85862 4.49988 2.62075 5.01412 2.42138C5.40188 2.27013 5.9835 2.09138 7.056 2.04188C8.07075 1.99513 8.464 1.98138 10.5141 1.98V1.98275ZM17.3726 3.80875C17.1993 3.80875 17.0276 3.84289 16.8675 3.90923C16.7073 3.97557 16.5618 4.0728 16.4392 4.19537C16.3167 4.31794 16.2194 4.46346 16.1531 4.62361C16.0868 4.78376 16.0526 4.95541 16.0526 5.12875C16.0526 5.30209 16.0868 5.47374 16.1531 5.63389C16.2194 5.79404 16.3167 5.93956 16.4392 6.06213C16.5618 6.1847 16.7073 6.28193 16.8675 6.34827C17.0276 6.41461 17.1993 6.44875 17.3726 6.44875C17.7227 6.44875 18.0585 6.30968 18.306 6.06213C18.5536 5.81458 18.6926 5.47884 18.6926 5.12875C18.6926 4.77866 18.5536 4.44292 18.306 4.19537C18.0585 3.94782 17.7227 3.80875 17.3726 3.80875ZM11.5014 5.3515C10.7521 5.33981 10.008 5.47729 9.31234 5.75594C8.61671 6.0346 7.98346 6.44885 7.44946 6.97458C6.91546 7.50032 6.49138 8.12703 6.20191 8.81823C5.91244 9.50944 5.76336 10.2513 5.76336 11.0007C5.76336 11.7501 5.91244 12.4919 6.20191 13.1831C6.49138 13.8743 6.91546 14.5011 7.44946 15.0268C7.98346 15.5525 8.61671 15.9668 9.31234 16.2454C10.008 16.5241 10.7521 16.6616 11.5014 16.6499C12.9844 16.6267 14.3988 16.0214 15.4393 14.9645C16.4799 13.9076 17.0631 12.4839 17.0631 11.0007C17.0631 9.51751 16.4799 8.09382 15.4393 7.03691C14.3988 5.97999 12.9844 5.37464 11.5014 5.3515ZM11.5014 7.33288C12.474 7.33288 13.4067 7.71923 14.0944 8.40695C14.7821 9.09467 15.1685 10.0274 15.1685 11C15.1685 11.9726 14.7821 12.9053 14.0944 13.593C13.4067 14.2808 12.474 14.6671 11.5014 14.6671C10.5288 14.6671 9.59605 14.2808 8.90833 13.593C8.22061 12.9053 7.83425 11.9726 7.83425 11C7.83425 10.0274 8.22061 9.09467 8.90833 8.40695C9.59605 7.71923 10.5288 7.33288 11.5014 7.33288Z" fill="#23A6F0"/>
</svg>

<svg width="23" height="22" fill="none" xmlns="http://www.w3.org/2000/svg"><path d="M11.5 0C8.515 0 8.14.014 6.967.066c-1.173.055-1.972.24-2.672.512-.734.276-1.4.709-1.948 1.269a5.4 5.4 0 0 0-1.27 1.948C.805 4.494.62 5.294.566 6.463.514 7.638.5 8.013.5 11c0 2.987.014 3.36.066 4.534.055 1.171.24 1.97.511 2.67a5.403 5.403 0 0 0 1.27 1.948c.61.612 1.223.989 1.947 1.27.7.272 1.498.457 2.67.511 1.174.052 1.548.066 4.536.066 2.988 0 3.36-.014 4.535-.066 1.17-.055 1.971-.24 2.671-.512a5.386 5.386 0 0 0 1.947-1.269 5.404 5.404 0 0 0 1.27-1.948c.27-.7.456-1.499.511-2.67.052-1.173.066-1.547.066-4.535 0-2.988-.014-3.362-.066-4.536-.055-1.17-.24-1.97-.512-2.669a5.4 5.4 0 0 0-1.269-1.948 5.379 5.379 0 0 0-1.948-1.27C18.004.305 17.203.12 16.033.066 14.86.014 14.486 0 11.497 0h.004-.001Zm-.986 1.983h.987c2.937 0 3.285.01 4.444.063 1.073.048 1.656.228 2.044.378.512.2.88.439 1.265.824a3.4 3.4 0 0 1 .822 1.265c.151.386.33.97.378 2.042.054 1.159.065 1.507.065 4.442 0 2.936-.011 3.285-.065 4.444-.048 1.073-.228 1.654-.378 2.042-.177.478-.458.91-.824 1.264-.385.385-.75.623-1.265.822-.385.151-.968.33-2.042.38-1.159.052-1.507.064-4.444.064-2.937 0-3.286-.012-4.445-.065-1.072-.049-1.654-.228-2.042-.379a3.407 3.407 0 0 1-1.265-.822 3.41 3.41 0 0 1-.825-1.265c-.15-.387-.33-.97-.378-2.042-.052-1.16-.063-1.507-.063-4.445 0-2.938.01-3.284.063-4.443.05-1.073.228-1.656.38-2.043.199-.513.438-.88.823-1.265.385-.385.75-.623 1.265-.823.388-.15.97-.33 2.042-.38 1.015-.046 1.408-.06 3.458-.061v.003Zm6.859 1.826a1.32 1.32 0 1 0 0 2.64 1.32 1.32 0 0 0 0-2.64ZM11.5 5.35a5.65 5.65 0 1 0-.176 11.3 5.65 5.65 0 0 0 .176-11.3Zm0 1.982a3.667 3.667 0 1 1 0 7.334 3.667 3.667 0 0 1 0-7.334Z" fill="#23A6F0"/></svg>
